lib/functional/weather&nature/flower-lotus.svg

<svg xmlns="http://www.w3.org/2000/svg" fill="none" stroke="currentColor" aria-hidden="true" viewBox="0 0 32 32"><g id="Icon-FlowerLotus"><g clip-path="url(#clip0_13_551)"><g id="size=md (32px)"><g id="FlowerLotus"><path id="Vector" stroke-linecap="round" stroke-linejoin="round" stroke-width="2" d="M16 24.9999C18 24.9999 21.3125 24.9749 25.1125 22.7749C28.9125 20.5749 30.15 17.8374 30.5375 16.4249C30.5732 16.2977 30.583 16.1646 30.5663 16.0335C30.5496 15.9024 30.5067 15.776 30.4403 15.6618C30.3739 15.5475 30.2852 15.4478 30.1795 15.3685C30.0738 15.2891 29.9532 15.2318 29.825 15.1999C28.9125 14.9624 27.3125 14.7499 25.2625 15.2374"/><path id="Vector_2" stroke-linecap="round" stroke-linejoin="round" stroke-width="2" d="M6.73747 15.2251C4.68747 14.7501 3.08747 14.9626 2.17497 15.2001C2.04673 15.2319 1.92619 15.2893 1.8205 15.3686C1.7148 15.4479 1.62611 15.5476 1.55967 15.6619C1.49323 15.7761 1.45039 15.9025 1.43369 16.0336C1.417 16.1647 1.42678 16.2978 1.46247 16.4251C1.84997 17.8376 3.08747 20.5876 6.88747 22.7751C10.6875 24.9626 14 25.0001 16 25.0001"/><path id="Vector_3" stroke-linecap="round" stroke-linejoin="round" stroke-width="2" d="M16 25.0001C16 25.0001 21 22.2751 21 15.0001C21 9.30005 17.925 6.40005 16.6 5.40005C16.4261 5.27213 16.2159 5.20313 16 5.20312C15.7841 5.20313 15.5739 5.27213 15.4 5.40005C14.075 6.40005 11 9.30005 11 15.0001C11 22.2751 16 25.0001 16 25.0001Z"/><path id="Vector_4" stroke-linecap="round" stroke-linejoin="round" stroke-width="2" d="M16 25C17.5 24.675 21.5375 22.4 23.9625 18.2C26.3875 14 25.7875 10.6625 25.3125 9.19998C25.2399 8.96477 25.0809 8.76574 24.8676 8.64286C24.6543 8.51998 24.4024 8.48233 24.1625 8.53748C22.7273 8.85891 21.3847 9.50456 20.2375 10.425"/><path id="Vector_5" stroke-linecap="round" stroke-linejoin="round" stroke-width="2" d="M11.7625 10.425C10.6153 9.50456 9.27272 8.85891 7.8375 8.53748C7.59758 8.48233 7.34569 8.51998 7.13238 8.64286C6.91907 8.76574 6.76014 8.96477 6.6875 9.19998C6.2125 10.6625 5.6125 14.0125 8.0375 18.2C10.4625 22.3875 14.5 24.675 16 25"/></g></g></g></g><defs><clipPath id="clip0_13_551"><rect width="32" height="32" fill="white" rx="5"/></clipPath></defs></svg>

<svg xmlns="http://www.w3.org/2000/svg" fill="none" stroke="currentColor" aria-hidden="true" viewBox="0 0 32 32"><g stroke="#101828" stroke-linecap="round" stroke-linejoin="round" stroke-width="2" clip-path="url(#a)"><path d="M16 25c2 0 5.313-.025 9.113-2.225s5.037-4.938 5.425-6.35a.987.987 0 0 0-.713-1.225c-.912-.237-2.512-.45-4.563.038m-18.525-.013c-2.05-.475-3.65-.262-4.562-.025a.988.988 0 0 0-.713 1.225c.388 1.412 1.625 4.162 5.425 6.35C10.687 24.963 14 25 16 25"/><path d="M16 25s5-2.725 5-10c0-5.7-3.075-8.6-4.4-9.6a1.012 1.012 0 0 0-1.2 0C14.075 6.4 11 9.3 11 15c0 7.275 5 10 5 10Z"/><path d="M16 25c1.5-.325 5.538-2.6 7.962-6.8 2.425-4.2 1.826-7.537 1.35-9a.975.975 0 0 0-1.15-.662 9.638 9.638 0 0 0-3.924 1.887m-8.476 0a9.638 9.638 0 0 0-3.925-1.888.975.975 0 0 0-1.15.663c-.474 1.463-1.075 4.813 1.35 9C10.462 22.388 14.5 24.675 16 25"/></g><defs><clipPath id="a"><rect width="32" height="32" fill="#fff" rx="5"/></clipPath></defs></svg>
